(Generated with: DXF2GCODE, Version: Py3.6.7 PyQt5.11.3, Date: $Date: Fri Oct 25 20:45:56 2019 +0200 $)
(Created from file: D:/test/SE08.Group22.1/sketchup-design/KITCHEN__01-20-45/004_09MM_101SH/09MM_101SH_SHEET_009.dxf)
(Output format description: G-CODE for LinuxCNC)
(Time: Fri Jan 21 16:23:40 2022)
G21 (Units in millimeters)
G90 (Absolute programming)
G64 (Default cutting) G17 (XY plane) G40 (Cancel radius comp.) G49 (Cancel length comp.)
G0 Z  15.000 

(*** LAYER: _ABF_SHEET_BORDER ***)
T1 M6
S6000

(* SHAPE Nr: 0 *)
G0 X   0.000 Y   0.000
M3 M8
G0 Z   3.000 
F150
G1 Z  -1.500
F400
G1 X   0.000 Y2440.000
G1 X1220.000 Y2440.000
G1 X1220.000 Y   0.000
G1 X   0.000 Y   0.000
F150
G1 Z  -3.000
F400
G1 X   0.000 Y2440.000
G1 X1220.000 Y2440.000
G1 X1220.000 Y   0.000
G1 X   0.000 Y   0.000
F150
G1 Z   3.000
G0 Z  15.000 
M9 M5

(*** LAYER: _ABF_CUTTING_LINES ***)

(* SHAPE Nr: 5 *)
G0 X  31.000 Y 766.000
M3 M8
G0 Z   3.000 
G1 Z  -1.500
F400
G1 X  31.000 Y 766.000
G1 X  31.000 Y1306.000
G1 X 531.000 Y1306.000
G1 X 531.000 Y 766.000
F150
G1 Z  -3.000
F400
G1 X  31.000 Y 766.000
G1 X  31.000 Y1306.000
G1 X 531.000 Y1306.000
G1 X 531.000 Y 766.000
F150
G1 Z   3.000
G0 Z  15.000 
M9 M5

(* SHAPE Nr: 2 *)
G0 X 537.500 Y 766.000
M3 M8
G0 Z   3.000 
G1 Z  -1.500
F400
G1 X 537.500 Y1448.000
G1 X1216.500 Y1448.000
G1 X1216.500 Y 766.000
G1 X 537.500 Y 766.000
F150
G1 Z  -3.000
F400
G1 X 537.500 Y1448.000
G1 X1216.500 Y1448.000
G1 X1216.500 Y 766.000
G1 X 537.500 Y 766.000
F150
G1 Z   3.000
G0 Z  15.000 
M9 M5

(* SHAPE Nr: 4 *)
G0 X 146.000 Y  80.500
M3 M8
G0 Z   3.000 
G1 Z  -1.500
F400
G1 X 628.000 Y  80.500
G1 X 146.000 Y  80.500
G1 X 146.000 Y 759.500
G1 X 628.000 Y 759.500
F150
G1 Z  -3.000
F400
G1 X 628.000 Y  80.500
G1 X 146.000 Y  80.500
G1 X 146.000 Y 759.500
G1 X 628.000 Y 759.500
F150
G1 Z   3.000
G0 Z  15.000 
M9 M5

(* SHAPE Nr: 3 *)
G0 X 634.500 Y  80.500
M3 M8
G0 Z   3.000 
G1 Z  -1.500
F400
G1 X1216.500 Y 759.500
G1 X1216.500 Y  80.500
G1 X 634.500 Y  80.500
G1 X 634.500 Y 759.500
F150
G1 Z  -3.000
F400
G1 X1216.500 Y 759.500
G1 X1216.500 Y  80.500
G1 X 634.500 Y  80.500
G1 X 634.500 Y 759.500
F150
G1 Z   3.000
G0 Z  15.000 
M9 M5

(* SHAPE Nr: 6 *)
G0 X  31.000 Y1312.500
M3 M8
G0 Z   3.000 
G1 Z  -1.500
F400
G1 X  31.000 Y1312.500
G1 X  31.000 Y1852.500
G1 X 531.000 Y1852.500
G1 X 531.000 Y1312.500
F150
G1 Z  -3.000
F400
G1 X  31.000 Y1312.500
G1 X  31.000 Y1852.500
G1 X 531.000 Y1852.500
G1 X 531.000 Y1312.500
F150
G1 Z   3.000
G0 Z  15.000 
M9 M5

(* SHAPE Nr: 1 *)
G0 X 537.500 Y1454.500
M3 M8
G0 Z   3.000 
G1 Z  -1.500
F400
G1 X 537.500 Y2436.500
G1 X1216.500 Y2436.500
G1 X1216.500 Y1454.500
G1 X 537.500 Y1454.500
F150
G1 Z  -3.000
F400
G1 X 537.500 Y2436.500
G1 X1216.500 Y2436.500
G1 X1216.500 Y1454.500
G1 X 537.500 Y1454.500
F150
G1 Z   3.000
G0 Z  15.000 
M9 M5

(* SHAPE Nr: 7 *)
G0 X  31.000 Y1859.000
M3 M8
G0 Z   3.000 
G1 Z  -1.500
F400
G1 X  31.000 Y1859.000
G1 X  31.000 Y2399.000
G1 X 531.000 Y2399.000
G1 X 531.000 Y1859.000
F150
G1 Z  -3.000
F400
G1 X  31.000 Y1859.000
G1 X  31.000 Y2399.000
G1 X 531.000 Y2399.000
G1 X 531.000 Y1859.000
F150
G1 Z   3.000
G0 Z  15.000 
M9 M5

(*** LAYER: _ABF_SHEET_ID ***)

(* SHAPE Nr: 8 *)
G0 X 724.132 Y1299.270
M3 M8
G0 Z   3.000 
G1 Z  -1.500
F400
G1 X 538.211 Y1042.111
G1 X 609.081 Y1014.260
G1 X 687.206 Y1049.882
G1 X 724.132 Y1160.017
G1 X 724.132 Y1299.270
F150
G1 Z  -3.000
F400
G1 X 724.132 Y1160.017
G1 X 687.206 Y1049.882
G1 X 609.081 Y1014.260
G1 X 538.211 Y1042.111
G1 X 509.678 Y1086.666
F150
G1 Z   3.000
G0 Z  15.000 
M9 M5

(* SHAPE Nr: 9 *)
G0 X 529.925 Y1207.696
M3 M8
G0 Z   3.000 
G1 Z  -1.500
F400
G1 X 688.498 Y1216.683
G1 X 609.081 Y1175.797
G1 X 529.925 Y1207.696
G1 X 495.868 Y1299.270
G1 X 529.005 Y1391.172
G1 X 609.081 Y1429.243
G1 X 693.758 Y1391.172
G1 X 724.132 Y1299.270
F150
G1 Z  -3.000
F400
G1 X 688.498 Y1216.683
G1 X 609.081 Y1175.797
G1 X 529.925 Y1207.696
G1 X 495.868 Y1299.270
G1 X 529.005 Y1391.172
G1 X 609.081 Y1429.243
G1 X 693.758 Y1391.172
G1 X 724.132 Y1299.270
F150
G1 Z   3.000
G0 Z  15.000 
M9 M5

(*** LAYER: _ABF_SHEET_MATERIAL ***)

(* SHAPE Nr: 18 *)
G0 X 402.036 Y2179.709
M3 M8
G0 Z   3.000 
G1 Z  -1.500
F400
G1 X 402.036 Y2179.709
F150
G1 Z  -3.000
F400
G1 X 402.036 Y2112.260
F150
G1 Z   3.000
G0 Z  15.000 
M9 M5

(* SHAPE Nr: 16 *)
G0 X 402.036 Y2204.773
M3 M8
G0 Z   3.000 
G1 Z  -1.500
F400
G1 X 402.036 Y2179.709
G1 X 422.999 Y2200.674
G1 X 439.860 Y2204.546
G1 X 456.722 Y2197.712
G1 X 463.475 Y2174.923
G1 X 479.738 Y2197.912
G1 X 497.510 Y2204.546
G1 X 518.017 Y2197.712
G1 X 524.169 Y2174.923
G1 X 524.169 Y2112.260
F150
G1 Z  -3.000
F400
G1 X 524.169 Y2174.923
G1 X 518.017 Y2197.712
G1 X 497.510 Y2204.546
G1 X 479.738 Y2197.912
G1 X 463.475 Y2174.923
G1 X 456.722 Y2197.712
G1 X 439.860 Y2204.546
G1 X 422.999 Y2200.674
G1 X 402.036 Y2179.709
G1 X 402.036 Y2204.773
F150
G1 Z   3.000
G0 Z  15.000 
M9 M5

(* SHAPE Nr: 19 *)
G0 X 545.624 Y2160.921
M3 M8
G0 Z   3.000 
G1 Z  -1.500
F400
G1 X 642.355 Y2160.921
F150
G1 Z  -3.000
F400
G1 X 545.624 Y2160.921
F150
G1 Z   3.000
G0 Z  15.000 
M9 M5

(* SHAPE Nr: 20 *)
G0 X 663.809 Y2199.397
M3 M8
G0 Z   3.000 
G1 Z  -1.500
F400
G1 X 684.356 Y2219.334
G1 X 699.462 Y2242.083
G1 X 699.462 Y2112.260
G1 X 663.809 Y2112.260
F150
G1 Z  -3.000
F400
G1 X 699.462 Y2112.260
G1 X 699.462 Y2242.083
G1 X 684.356 Y2219.334
G1 X 663.809 Y2199.397
F150
G1 Z   3.000
G0 Z  15.000 
M9 M5

(* SHAPE Nr: 21 *)
G0 X 699.462 Y2112.260
M3 M8
G0 Z   3.000 
G1 Z  -1.500
F400
G1 X 735.219 Y2112.260
F150
G1 Z  -3.000
F400
G1 X 699.462 Y2112.260
F150
G1 Z   3.000
G0 Z  15.000 
M9 M5

(* SHAPE Nr: 22 *)
G0 X 791.504 Y2112.260
M3 M8
G0 Z   3.000 
G1 Z  -1.500
F400
G1 X 756.674 Y2157.066
G1 X 756.674 Y2197.530
G1 X 768.167 Y2232.340
G1 X 791.271 Y2242.083
G1 X 814.291 Y2232.340
G1 X 825.773 Y2197.530
G1 X 825.773 Y2157.066
G1 X 817.181 Y2122.937
G1 X 791.504 Y2112.260
G1 X 767.175 Y2122.897
F150
G1 Z  -3.000
F400
G1 X 756.674 Y2157.066
G1 X 756.674 Y2197.530
G1 X 768.167 Y2232.340
G1 X 791.271 Y2242.083
G1 X 814.291 Y2232.340
G1 X 825.773 Y2197.530
G1 X 825.773 Y2157.066
G1 X 817.181 Y2122.937
G1 X 791.504 Y2112.260
G1 X 767.175 Y2122.897
F150
G1 Z   3.000
G0 Z  15.000 
M9 M5

(* SHAPE Nr: 23 *)
G0 X 847.228 Y2199.397
M3 M8
G0 Z   3.000 
G1 Z  -1.500
F400
G1 X 882.881 Y2112.260
G1 X 882.881 Y2242.083
G1 X 867.774 Y2219.334
G1 X 847.228 Y2199.397
F150
G1 Z  -3.000
F400
G1 X 867.774 Y2219.334
G1 X 882.881 Y2242.083
G1 X 882.881 Y2112.260
G1 X 847.228 Y2112.260
F150
G1 Z   3.000
G0 Z  15.000 
M9 M5

(* SHAPE Nr: 24 *)
G0 X 882.881 Y2112.260
M3 M8
G0 Z   3.000 
G1 Z  -1.500
F400
G1 X 918.638 Y2112.260
F150
G1 Z  -3.000
F400
G1 X 882.881 Y2112.260
F150
G1 Z   3.000
G0 Z  15.000 
M9 M5

(* SHAPE Nr: 25 *)
G0 X1025.780 Y2214.062
M3 M8
G0 Z   3.000 
G1 Z  -1.500
F400
G1 X 947.050 Y2130.166
G1 X 964.137 Y2116.844
G1 X 988.156 Y2112.260
G1 X1013.145 Y2118.655
G1 X1026.202 Y2130.166
G1 X1031.199 Y2144.491
G1 X1027.010 Y2159.881
G1 X1013.304 Y2170.524
G1 X 963.012 Y2187.935
G1 X 948.982 Y2196.413
G1 X 944.629 Y2212.278
G1 X 949.951 Y2229.152
G1 X 961.717 Y2238.873
G1 X 983.832 Y2243.068
G1 X1003.782 Y2238.873
G1 X1018.785 Y2229.152
G1 X1025.780 Y2214.062
F150
G1 Z  -3.000
F400
G1 X1018.785 Y2229.152
G1 X1003.782 Y2238.873
G1 X 983.832 Y2243.068
G1 X 961.717 Y2238.873
G1 X 949.951 Y2229.152
G1 X 944.629 Y2212.278
G1 X 948.982 Y2196.413
G1 X 963.012 Y2187.935
G1 X1013.304 Y2170.524
G1 X1027.010 Y2159.881
G1 X1031.199 Y2144.491
G1 X1026.202 Y2130.166
G1 X1013.145 Y2118.655
G1 X 988.156 Y2112.260
G1 X 964.137 Y2116.844
G1 X 947.050 Y2130.166
G1 X 940.092 Y2147.605
F150
G1 Z   3.000
G0 Z  15.000 
M9 M5

(* SHAPE Nr: 27 *)
G0 X1052.654 Y2180.622
M3 M8
G0 Z   3.000 
G1 Z  -1.500
F400
G1 X1052.654 Y2112.260
F150
G1 Z  -3.000
F400
G1 X1052.654 Y2180.622
F150
G1 Z   3.000
G0 Z  15.000 
M9 M5

(* SHAPE Nr: 28 *)
G0 X1144.970 Y2180.622
M3 M8
G0 Z   3.000 
G1 Z  -1.500
F400
G1 X1144.970 Y2180.622
F150
G1 Z  -3.000
F400
G1 X1144.970 Y2112.260
F150
G1 Z   3.000
G0 Z  15.000 
M9 M5

(* SHAPE Nr: 26 *)
G0 X1144.970 Y2240.103
M3 M8
G0 Z   3.000 
G1 Z  -1.500
F400
G1 X1144.970 Y2180.622
G1 X1052.654 Y2180.622
G1 X1052.654 Y2240.103
F150
G1 Z  -3.000
F400
G1 X1052.654 Y2180.622
G1 X1144.970 Y2180.622
G1 X1144.970 Y2240.103
F150
G1 Z   3.000
G0 Z  15.000 
M9 M5

(* SHAPE Nr: 17 *)
G0 X 463.475 Y2174.923
M3 M8
G0 Z   3.000 
G1 Z  -1.500
F400
G1 X 463.475 Y2112.260
F150
G1 Z  -3.000
F400
G1 X 463.475 Y2174.923
F150
G1 Z   3.000
G0 Z  15.000 
M9 M5

(* SHAPE Nr: 13 *)
G0 X 258.449 Y2112.260
M3 M8
G0 Z   3.000 
G1 Z  -1.500
F400
G1 X 380.582 Y2174.923
G1 X 374.430 Y2197.712
G1 X 353.923 Y2204.546
G1 X 336.151 Y2197.912
G1 X 319.888 Y2174.923
G1 X 313.134 Y2197.712
G1 X 296.272 Y2204.546
G1 X 279.412 Y2200.674
G1 X 258.449 Y2179.709
G1 X 258.449 Y2112.260
F150
G1 Z  -3.000
F400
G1 X 258.449 Y2179.709
G1 X 279.412 Y2200.674
G1 X 296.272 Y2204.546
G1 X 313.134 Y2197.712
G1 X 319.888 Y2174.923
G1 X 336.151 Y2197.912
G1 X 353.923 Y2204.546
G1 X 374.430 Y2197.712
G1 X 380.582 Y2174.923
G1 X 380.582 Y2112.260
F150
G1 Z   3.000
G0 Z  15.000 
M9 M5

(* SHAPE Nr: 14 *)
G0 X 258.449 Y2204.773
M3 M8
G0 Z   3.000 
G1 Z  -1.500
F400
G1 X 258.449 Y2204.773
F150
G1 Z  -3.000
F400
G1 X 258.449 Y2179.709
F150
G1 Z   3.000
G0 Z  15.000 
M9 M5

(* SHAPE Nr: 11 *)
G0 X 236.994 Y2201.422
M3 M8
G0 Z   3.000 
G1 Z  -1.500
F400
G1 X 236.994 Y2157.858
G1 X 225.442 Y2123.404
G1 X 201.002 Y2112.260
G1 X 178.831 Y2120.973
G1 X 169.905 Y2134.912
F150
G1 Z  -3.000
F400
G1 X 178.831 Y2120.973
G1 X 201.002 Y2112.260
G1 X 225.442 Y2123.404
G1 X 236.994 Y2157.858
G1 X 236.994 Y2201.422
F150
G1 Z   3.000
G0 Z  15.000 
M9 M5

(* SHAPE Nr: 10 *)
G0 X 109.861 Y2112.260
M3 M8
G0 Z   3.000 
G1 Z  -1.500
F400
G1 X 135.537 Y2122.937
G1 X 109.861 Y2112.260
G1 X  85.531 Y2122.897
G1 X  75.030 Y2157.066
G1 X  75.030 Y2197.530
G1 X  86.523 Y2232.340
G1 X 109.627 Y2242.083
G1 X 132.647 Y2232.340
G1 X 144.130 Y2197.530
G1 X 144.130 Y2157.066
F150
G1 Z  -3.000
F400
G1 X 135.537 Y2122.937
G1 X 109.861 Y2112.260
G1 X  85.531 Y2122.897
G1 X  75.030 Y2157.066
G1 X  75.030 Y2197.530
G1 X  86.523 Y2232.340
G1 X 109.627 Y2242.083
G1 X 132.647 Y2232.340
G1 X 144.130 Y2197.530
G1 X 144.130 Y2157.066
F150
G1 Z   3.000
G0 Z  15.000 
M9 M5

(* SHAPE Nr: 12 *)
G0 X 201.002 Y2162.795
M3 M8
G0 Z   3.000 
G1 Z  -1.500
F400
G1 X 165.584 Y2201.422
G1 X 175.951 Y2230.173
G1 X 201.002 Y2242.083
G1 X 227.492 Y2230.173
G1 X 236.994 Y2201.422
G1 X 225.847 Y2175.586
G1 X 201.002 Y2162.795
G1 X 176.239 Y2172.774
F150
G1 Z  -3.000
F400
G1 X 165.584 Y2201.422
G1 X 175.951 Y2230.173
G1 X 201.002 Y2242.083
G1 X 227.492 Y2230.173
G1 X 236.994 Y2201.422
G1 X 225.847 Y2175.586
G1 X 201.002 Y2162.795
G1 X 176.239 Y2172.774
F150
G1 Z   3.000
G0 Z  15.000 
M9 M5

(* SHAPE Nr: 15 *)
G0 X 319.888 Y2174.923
M3 M8
G0 Z   3.000 
G1 Z  -1.500
F400
G1 X 319.888 Y2112.260
F150
G1 Z  -3.000
F400
G1 X 319.888 Y2174.923
F150
G1 Z   3.000
G0 Z  15.000 
M9 M5
G0 X   0.000 Y   0.000
M2 (Program end)